X:1
Q:1/4=80
L:1/8
M:1/4
K:C clef=G2
V:1
%%MIDI program 73
Dz31/64D7/16|G2-G3/4|z31/32G7/8z/8|Az31/64D7/16|
B7/4(5:4z/4|G7/4z/4|Gz31/64^F7/16|E7/4(5:4z/4|
A7/4z/4|Gz31/64^F7/16|G14/4|zz31/32|
Dz31/64D7/16|G2-G3/4|z31/32G7/8z/8|Az31/64D7/16|
B7/4(5:4z/4|G7/4z/4|Gz31/64^F7/16|E7/4(5:4z/4|
c7/4z/4|Bz31/64A7/16|B14/4|zz31/32|
Bz31/64c7/16|d2-d3/4|z31/32B7/8z/8|c7/8d7/8z/8|
e7/4(5:4z/4|c7/8A7/8z/8|Gz31/64G7/16|D7/4(5:4z/4|
G7/4z/4|Bz31/64A7/16|G14/4|zz/2
L:1/8
M:1/4
K:C clef=G2
V:2
%%MIDI program 48
Dz31/64D7/16|D2-D3/4|z31/32D7/8z/8|^Fz31/64D7/16|
G7/4(5:4z/4|G7/4z/4|Dz31/64D7/16|E7/4(5:4z/4|
E7/4z/4|Dz31/64D7/16|D14/4|zz31/32|
Dz31/64D7/16|D2-D3/4|z31/32D7/8z/8|^Fz31/64D7/16|
G7/4(5:4z/4|G7/4z/4|Dz31/64D7/16|E7/4(5:4z/4|
E7/4z/4|Gz31/64^F7/16|G14/4|zz31/32|
Gz31/64G7/16|G2-G3/4|z31/32G7/8z/8|G7/8G7/8z/8|
G7/4(5:4z/4|E7/4z/4|Ez31/64E7/16|D7/4(5:4z/4|
D7/4z/4|Gz31/64^F7/16|D14/4|zz/2
L:1/8
M:1/4
K:C clef=F4
V:3
%%MIDI program 57
Dz31/64D7/16|B,2-B,3/4|z31/32B,7/8z/8|Cz31/64C7/16|
D7/4(5:4z/4|B,7/4z/4|G,z31/64G,7/16|G,7/4(5:4z/4|
C7/4z/4|B,z31/64A,7/16|B,14/4|zz31/32|
Dz31/64D7/16|B,2-B,3/4|z31/32B,7/8z/8|Cz31/64C7/16|
D7/4(5:4z/4|B,7/4z/4|G,z31/64G,7/16|G,7/4(5:4z/4|
C7/4z/4|Dz31/64D7/16|D14/4|zz31/32|
G,z31/64A,7/16|B,2-B,3/4|z31/32D7/8z/8|C7/8B,7/8z/8|
C7/4(5:4z/4|G,7/4z/4|Cz31/64C7/16|B,7/4(5:4z/4|
B,7/4z/4|Dz31/64C7/16|B,14/4|zz/2
L:1/8
M:1/4
K:C clef=F4
V:4
%%MIDI program 60
D,z31/64D,7/16|G,2-G,3/4|z31/32G,7/8z/8|D,z31/64D,7/16|
G,7/4(5:4z/4|G,7/4z/4|B,,z31/64B,,7/16|C,7/4(5:4z/4|
A,,7/4z/4|D,z31/64D,7/16|G,14/4|zz31/32|
D,z31/64D,7/16|G,2-G,3/4|z31/32G,7/8z/8|D,z31/64D,7/16|
G,7/4(5:4z/4|G,7/4z/4|B,,z31/64B,,7/16|C,7/4(5:4z/4|
A,,7/4z/4|D,z31/64D,7/16|G,14/4|zz31/32|
G,z31/64G,7/16|G,2-G,3/4|z31/32F,7/8z/8|E,7/8D,7/8z/8|
C,7/4(5:4z/4|C,7/4z/4|C,z31/64C,7/16|D,7/4(5:4z/4|
D,7/4z/4|D,z31/64D,7/16|G,14/4|zz/2


